resources/assets/svg/trash.svg

<?xml version="1.0" encoding="iso-8859-1"?>
<!-- Generator: Adobe Illustrator 19.0.0, SVG Export Plug-In . SVG Version: 6.00 Build 0)  -->
<svg version="1.1" id="Capa_1" xmlns="http://www.w3.org/2000/svg" xmlns:xlink="http://www.w3.org/1999/xlink" x="0px" y="0px"
	 viewBox="0 0 512 512" style="enable-background:new 0 0 512 512;" xml:space="preserve">
<g>
	<g>
		<path d="M406,61h-75V45c0-24.813-20.187-45-45-45h-60c-24.813,0-45,20.187-45,45v16h-75c-24.813,0-45,20.187-45,45v30
			c0,8.284,6.716,15,15,15h16.194l26.565,319.737C120.688,493.875,140.386,512,163.604,512h184.792
			c23.218,0,42.916-18.125,44.845-41.267L419.806,151H436c8.284,0,15-6.716,15-15v-30C451,81.187,430.813,61,406,61z M211,45
			c0-8.271,6.729-15,15-15h60c8.271,0,15,6.729,15,15v16h-90V45z M363.344,468.245c-0.643,7.713-7.209,13.755-14.948,13.755H163.604
			c-7.739,0-14.306-6.042-14.948-13.751L122.298,151h267.404L363.344,468.245z M421,121H91v-15c0-8.271,6.729-15,15-15h300
			c8.271,0,15,6.729,15,15V121z"/>
	</g>
</g>
<g>
	<g>
		<path d="M256,181c-8.284,0-15,6.716-15,15v241c0,8.284,6.716,15,15,15s15-6.716,15-15V196C271,187.716,264.284,181,256,181z"/>
	</g>
</g>
<g>
	<g>
		<path d="M316,181c-8.284,0-15,6.716-15,15v241c0,8.284,6.716,15,15,15s15-6.716,15-15V196C331,187.716,324.284,181,316,181z"/>
	</g>
</g>
<g>
	<g>
		<path d="M196,181c-8.284,0-15,6.716-15,15v241c0,8.284,6.716,15,15,15s15-6.716,15-15V196C211,187.716,204.284,181,196,181z"/>
	</g>
</g>
<g>
</g>
<g>
</g>
<g>
</g>
<g>
</g>
<g>
</g>
<g>
</g>
<g>
</g>
<g>
</g>
<g>
</g>
<g>
</g>
<g>
</g>
<g>
</g>
<g>
</g>
<g>
</g>
<g>
</g>
</svg>

<svg width="512" height="512" viewBox="0 0 512 512" fill="none" xmlns="http://www.w3.org/2000/svg">
<path d="M406 61H331V45C331 20.187 310.813 0 286 0H226C201.187 0 181 20.187 181 45V61H106C81.187 61 61 81.187 61 106V136C61 144.284 67.716 151 76 151H92.194L118.759 470.737C120.688 493.875 140.386 512 163.604 512H348.396C371.614 512 391.312 493.875 393.241 470.733L419.806 151H436C444.284 151 451 144.284 451 136V106C451 81.187 430.813 61 406 61ZM211 45C211 36.729 217.729 30 226 30H286C294.271 30 301 36.729 301 45V61H211V45ZM363.344 468.245C362.701 475.958 356.135 482 348.396 482H163.604C155.865 482 149.298 475.958 148.656 468.249L122.298 151H389.702L363.344 468.245ZM421 121H91V106C91 97.729 97.729 91 106 91H406C414.271 91 421 97.729 421 106V121Z" fill="#B30000"/>
<path d="M256 181C247.716 181 241 187.716 241 196V437C241 445.284 247.716 452 256 452C264.284 452 271 445.284 271 437V196C271 187.716 264.284 181 256 181Z" fill="#B30000"/>
<path d="M316 181C307.716 181 301 187.716 301 196V437C301 445.284 307.716 452 316 452C324.284 452 331 445.284 331 437V196C331 187.716 324.284 181 316 181Z" fill="#B30000"/>
<path d="M196 181C187.716 181 181 187.716 181 196V437C181 445.284 187.716 452 196 452C204.284 452 211 445.284 211 437V196C211 187.716 204.284 181 196 181Z" fill="#B30000"/>
</svg>
